icon-themes/breeze_svg/res/odb_48_8.svg

<svg viewBox="0 0 48 48" xmlns="http://www.w3.org/2000/svg"><path d="m24 6c-9.941125 0-18 2.6863-18 6v8 8 8c0 3.3137 8.058875 6 18 6s18-2.6863 18-6v-8-8-8c0-3.3137-8.058875-6-18-6zm0 3c8.284271 0 15 1.3431 15 3s-6.715729 3-15 3-15-1.3431-15-3 6.715729-3 15-3zm-15 6.3125c3.225625 1.614964 8.743077 2.6875 15 2.6875s11.774375-1.072536 15-2.6875v4.6875c0 1.6569-6.715729 3-15 3s-15-1.3431-15-3zm0 8c3.225625 1.614964 8.743077 2.6875 15 2.6875s11.774375-1.072536 15-2.6875v4.6875c0 1.6569-6.715729 3-15 3s-15-1.3431-15-3zm0 8c3.225625 1.614964 8.743077 2.6875 15 2.6875s11.774375-1.072536 15-2.6875v4.6875c0 1.6569-6.715729 3-15 3s-15-1.3431-15-3z" fill="#8e44ad"/></svg>

<svg xmlns="http://www.w3.org/2000/svg" viewBox="0 0 48 48">
 <path 
     style="fill:#8e44ad" 
     d="M 24 6 C 14.058875 6 6 8.6863 6 12 L 6 20 L 6 28 L 6 36 C 6 39.3137 14.058875 42 24 42 C 33.941125 42 42 39.3137 42 36 L 42 28 L 42 20 L 42 12 C 42 8.6863 33.941125 6 24 6 z M 24 9 C 32.284271 9 39 10.3431 39 12 C 39 13.6569 32.284271 15 24 15 C 15.715729 15 9 13.6569 9 12 C 9 10.3431 15.715729 9 24 9 z M 9 15.3125 C 12.225625 16.927464 17.743077 18 24 18 C 30.256923 18 35.774375 16.927464 39 15.3125 L 39 20 C 39 21.6569 32.284271 23 24 23 C 15.715729 23 9 21.6569 9 20 L 9 15.3125 z M 9 23.3125 C 12.225625 24.927464 17.743077 26 24 26 C 30.256923 26 35.774375 24.927464 39 23.3125 L 39 28 C 39 29.6569 32.284271 31 24 31 C 15.715729 31 9 29.6569 9 28 L 9 23.3125 z M 9 31.3125 C 12.225625 32.927464 17.743077 34 24 34 C 30.256923 34 35.774375 32.927464 39 31.3125 L 39 36 C 39 37.6569 32.284271 39 24 39 C 15.715729 39 9 37.6569 9 36 L 9 31.3125 z "
     />
 </svg>
